icon-themes/sifr_svg/cmd/sc_connectorlinearrowstart.svg

<svg viewBox="0 0 16 16" xmlns="http://www.w3.org/2000/svg"><path d="m1 1v6l1 1 1-1v-2.5859375l9.585938 9.5859375h1.414062v-1.414062l-9.5859375-9.585938h2.5859375l1-1-1-1z" fill="#555753"/></svg>

<svg xmlns="http://www.w3.org/2000/svg" viewBox="0 0 16 16">
  <path
     style="fill:#555753"
     d="M 1,1 V 7 L 2,8 3,7 V 4.4140625 L 12.585938,14 H 14 V 12.585938 L 4.4140625,3 H 7 L 8,2 7,1 Z"
     />
</svg>
